X:1
T:Anticipation
T:Anticipation
T:ZEZ CONFREY
T:Copyright 1924 Mills Music Inc
T:Copyright 1924 Mills Music Inc
T:Copyright 1924 Mills Music Inc
T:Copyright 1924 Mills Music Inc
C:Zez Confrey
Z:Copyright 1924 Mills Music Inc
%%score { ( 1 3 ) | ( 2 4 ) }
L:1/8
Q:1/4=180
M:3/4
K:C
V:1 treble nm="Piano" snm="Pno."
V:3 treble 
V:2 bass 
V:4 bass 
V:1
"^Allegro"!f! ([ce][Bg][ce][Bg] [ce]2) | ([Bd][Af][Bd][Af] [Bd]2) | ([Ac][Ge][Ac][Ge] [Ac]2) | %3
 ([GB][Fd][GB][Fd] [GB]2) | ([FA][Ec][FA][Ec] [FA]2) | ([EG][DB][EG][DB] [EG]2) | %6
 ([DF][CA][DF][CA] [DF]2) | !>!!fermata![B,G]6 || %8
!p![Q:1/4=180]"^Valse moderato" ([ce]!>![Bg][ce]!>![Bg][ce]!>![Bg] | %9
 [ce]!>![Bg][ce]!>![Bg][ce]!>![Bg] | [ce]!>![Bg][ce]!>![Bg][ce]!>![Bg] | !>![Bd]6) | %12
 ([Bd]!>![Af][Bd]!>![Af][Bd]!>![Af] | [Bd]!>![Af][Bd]!>![Af][Bd]!>![Af] | %14
 [Bd]!>![Af][Bd]!>![Af][Bd]!>![Af] | !>![Ac]6) | ([A^c]!>![Gd][Ac]!>![Gd][Ac]!>![Gd] | %17
 [A^c]!>![Gd][Ac]!>![Gd][Ac]!>![Gd] |!<(! [A^c]!>![Gd][Ac]!>![Gd][Ac]!>![Gd]!<)! | %19
!>(! !>![_Ac]6)!>)! | ([ce]!>![Bg][ce]!>![=Ag][ce]!>![Gf] | [Bd]!>![Af][Bd]!>![Gf] !>![Bd]2 | %22
!>(! ((!>![ce]6)!>)! | [cegc']4)) z2 ||[K:F]!mf! z (!>![Ad][Bc]!>![Gd][Bc]!>![^Fd] | %25
 [Bc]!>![Gd][Bc]!>![^Gd] !>![Bc]2) | z (!>![=Gd][Ac]!>![Fd][Ac]!>![Ed] | %27
 [Ac]!>![Fd][Ac]!>![Gd] !>![Ac]2) | z (!>![Fc][GB]!>![Ec][GB]!>![Dc] | %29
 [GB]!>![Ec][GB]!>![Fc] !>![GB]2) | z (!>![Ec][FA]!>![Dc][FA]!>![Cc] | !>![FA]6) | %32
 z (!>![Ad][Bc]!>![Gd][Bc]!>![^Fd] | [Bc]!>![Gd][Bc]!>![^Gd] !>![Bc]2) | %34
 z (!>![=Gd][Ac]!>![Fd][Ac]!>![Ed] | [Ac]!>![Fd][Ac]!>![Gd] !>![Ac]2) | %36
 z (!>![Fc][GB]!>![Ec][GB]!>![Dc] | [GB]!>![Ec][GB]!>![Fc] !>![GB]2 | !>!F)!>(!(Acfac'!>)! | %39
 [fad']4) z2 ||[K:C] ([ce]!>![Bg][ce]!>![Bg][ce]!>![Bg] | [ce]!>![Bg][ce]!>![Bg][ce]!>![Bg] | %42
 [ce]!>![Bg][ce]!>![Bg][ce]!>![Bg] | !>![Bd]6) | ([Bd]!>![Af][Bd]!>![Af][Bd]!>![Af] | %45
 [Bd]!>![Af][Bd]!>![Af][Bd]!>![Af] | [Bd]!>![Af][Bd]!>![Af][Bd]!>![Af] | !>![Ac]6) | %48
 ([A^c]!>![Gd][Ac]!>![Gd][Ac]!>![Gd] | [A^c]!>![Gd][Ac]!>![Gd][Ac]!>![Gd] | %50
!<(! [A^c]!>![Gd][Ac]!>![Gd][Ac]!>![Gd]!<)! |!>(! !>![_Ac]6)!>)! | %52
 ([ce]!>![Bg][ce]!>![=Ag][ce]!>![Gf] | [Bd]!>![Af][Bd]!>![Gf] !>![Bd]2 |!>(! ((!>![ce]6)!>)! | %55
 [cegc']2)) z2 ||[K:F][M:3/4] ([A,A]2 |:!p!!f!"_-" [Cc]6 | [^C^c]4) ([Dd]2 | [Ff]4 [Dd]2 | %60
 [B,B]4) ([A,A]2 | [^F,^F]6 | [G,G]6 | [Cc]6- | [Cc]4) ([Dd]2 | [A,A]4) ([Dd]2 | [A,A]4) ([=D=d]2 | %67
 [B,B]6- | [B,B]4) ([Dd]2 | [G,G]4) ([Dd]2 | [^G,^G]4) ([Dd]2 | [A,A]6- | [A,A]4) ([A,A]2 | [Cc]6 | %74
 [^C^c]4) ([Dd]2 | [Ff]4 [Dd]2 | [B,B]4) ([A,A]2 | [^F,^F]6 | [G,G]6 | [Dd]6- | [Dd]4) ([Dd]2 | %81
 [=F=f]4 [Ee][_E_e] | [Dd]6) | ([Ee]4 [Dd][_D_d] | [Cc]6) | ([B,B]6 | [A,A]6 |1 %87
 [A,CF]2)!mf! (cd c2) | (CD C2)!f! [A,A]2 :|2 F!>(!(A, CFAc!>)! | [FAf]4) z2 || %91
[K:C]!f! ([ce][Bg][ce][Bg] [ce]2) | ([Bd][Af][Bd][Af] [Bd]2) | ([Ac][Ge][Ac][Ge] [Ac]2) | %94
 ([GB][Fd][GB][Fd] [GB]2) | ([FA][Ec][FA][Ec] [FA]2) | ([EG][DB][EG][DB] [EG]2) | %97
 ([DF][CA][DF][CA] [DF]2) | !>!!fermata![B,G]6 || %99
"^Moderato"!p! ([ce]!>![Bg][ce]!>![Bg][ce]!>![Bg] | [ce]!>![Bg][ce]!>![Bg][ce]!>![Bg] | %101
 [ce]!>![Bg][ce]!>![Bg][ce]!>![Bg] | !>![Bd]6) | ([Bd]!>![Af][Bd]!>![Af][Bd]!>![Af] | %104
 [Bd]!>![Af][Bd]!>![Af][Bd]!>![Af] | [Bd]!>![Af][Bd]!>![Af][Bd]!>![Af] | !>![Ac]6) | %107
 ([A^c]!>![Gd][Ac]!>![Gd][Ac]!>![Gd] | [A^c]!>![Gd][Ac]!>![Gd][Ac]!>![Gd] | %109
!<(! [A^c]!>![Gd][Ac]!>![Gd][Ac]!>![Gd]!<)! |!>(! !>![_Ac]6)!>)! | %111
 ([ce]!>![Bg][ce]!>![=Ag][ce]!>![Gf] | [Bd]!>![Af][Bd]!>![Gf] !>![Bd]2 | ((!>![ce]6) | %114
 [cegc']4)) z2 |] %115
V:2
 (G2 C2 G2) | (F2 B,2 F2) | (E2 A,2 E2) | (D2 G,2 D2) |"^poco rall. e dim." (C2 F,2 C2) | %5
 (B,2 E,2 B,2) | (A,2 D,2 A,2) | !>!!fermata![G,,G,]6 || C,2 [G,CE]2 [G,CE]2 | %9
 G,,2 [G,CE]2 [G,CE]2 | D,2 [G,B,F]2 [G,B,F]2 | G,,2 [G,B,F]2 [G,B,F]2 | D,2 [G,B,F]2 [G,B,F]2 | %13
 G,,2 [G,B,F]2 [G,B,F]2 | C,2 [G,CE]2 [G,CE]2 | G,,2 [G,CE]2 [G,CE]2 | A,,2 [G,A,^C]2 [G,A,C]2 | %17
 A,,2 [G,A,^C]2 [G,A,C]2 | [D,,D,]2 [F,A,D]2 [F,A,D]2 | [D,,D,]2 [F,_A,C]2 [A,CF]2 | %20
 G,,2 [G,CE]2 [G,CE]2 | G,,2 [G,B,F]2 [G,B,F]2 | [C,C]2 ([G,,G,]2 [E,,E,]2 | [C,,C,]4) z2 || %24
[K:F] .G,,2 [E,B,C]2 [E,B,C]2 | .C,,2 [E,B,C]2 [E,B,C]2 | .F,,2 [F,A,C]2 [F,A,C]2 | %27
 .C,,2 [F,A,C]2 [F,A,C]2 | .G,,2 [E,B,C]2 [E,B,C]2 | .C,,2 [E,B,C]2 [E,B,C]2 | %30
 .F,,2 [F,A,C]2 [F,A,C]2 | .C,,2 (C,D, C,2) | .G,,2 [E,B,C]2 [E,B,C]2 | .C,,2 [E,B,C]2 [E,B,C]2 | %34
 .F,,2 [F,A,C]2 [F,A,C]2 | .C,,2 [F,A,C]2 [F,A,C]2 | .G,,2 [E,B,C]2 [E,B,C]2 | %37
 .C,,2 [E,B,C]2 [E,B,C]2 | F,,2 (C,2 A,,2 | F,,4) z2 ||[K:C] C,2 [G,CE]2 [G,CE]2 | %41
 G,,2 [G,CE]2 [G,CE]2 | D,2 [G,B,F]2 [G,B,F]2 | G,,2 [G,B,F]2 [G,B,F]2 | D,2 [G,B,F]2 [G,B,F]2 | %45
 G,,2 [G,B,F]2 [G,B,F]2 | C,2 [G,CE]2 [G,CE]2 | G,,2 [G,CE]2 [G,CE]2 | A,,2 [G,A,^C]2 [G,A,C]2 | %49
 A,,2 [G,A,^C]2 [G,A,C]2 | [D,,D,]2 [F,A,D]2 [F,A,D]2 | [D,,D,]2 [F,_A,C]2 [A,CF]2 | %52
 G,,2 [G,CE]2 [G,CE]2 | G,,2 [G,B,F]2 [G,B,F]2 | [C,C]2 ([G,,G,]2 [E,,E,]2 | [C,,C,]2) z2 || %56
[K:F][M:3/4] z2 |: [F,,F,]4 z2 | [A,,A,]4 z2 | [G,,G,]4 z2 | [G,,,G,,]4 z2 | ([C,,C,]6 | %62
 [B,,,B,,]6 | [A,,,A,,]4) z2 | [F,,,F,,]4 z2 | ([F,,F,]6 | [^F,,^F,]6 | [G,,G,]4) z2 | %68
 [C,,C,]4 z2 | [E,,E,]6 | [C,,C,]6 | z2 (C,2 D,2 | E,2 D,2 C,2) | [F,,F,]4 z2 | [A,,A,]4 z2 | %75
 [G,,G,]4 z2 | [G,,,G,,]4 z2 | ([C,,C,]6 | [B,,,B,,]6 | [A,,,A,,]4) z2 | [D,,,D,,]4 z2 | %81
 [G,,G,]4 z2 | [^G,,^G,]6 | [A,,A,]4 z2 | [D,,D,]6 |"^dim." [G,,G,]6 | [C,,C,]6 |1 F,,2 (CD C2) | %88
 (C,D, C,2) z2 :|2 [F,,F,]2 ([C,,C,]2 [A,,,A,,]2 | [F,,,F,,]4) z2 ||[K:C] (G2 C2 G2) | %92
 (F2 B,2 F2) | (E2 A,2 E2) | (D2 G,2 D2) |"^poco rall. e dim." (C2 F,2 C2) | (B,2 E,2 B,2) | %97
 (A,2 D,2 A,2) | !>!!fermata![G,,G,]6 || C,2 [G,CE]2 [G,CE]2 | G,,2 [G,CE]2 [G,CE]2 | %101
 D,2 [G,B,F]2 [G,B,F]2 | G,,2 [G,B,F]2 [G,B,F]2 | D,2 [G,B,F]2 [G,B,F]2 | G,,2 [G,B,F]2 [G,B,F]2 | %105
 C,2 [G,CE]2 [G,CE]2 | G,,2 [G,CE]2 [G,CE]2 | A,,2 [G,A,^C]2 [G,A,C]2 | A,,2 [G,A,^C]2 [G,A,C]2 | %109
 [D,,D,]2 [F,A,D]2 [F,A,D]2 | [D,,D,]2 [F,_A,C]2 [A,CF]2 | G,,2 [G,CE]2 [G,CE]2 | %112
 G,,2 [G,B,F]2 [G,B,F]2 | [C,C]2 ([G,,G,]2 [E,,E,]2 | [C,,C,]4) z2 |] %115
V:3
 x6 | x6 | x6 | x6 | x6 | x6 | x6 | (E2 !fermata!D4) || x6 | x6 | x6 | x6 | x6 | x6 | x6 | x6 | %16
 x6 | x6 | x6 | x6 | x6 | x6 | x6 | x6 ||[K:F] x6 | x6 | x6 | x6 | x6 | x6 | x6 | x6 | x6 | x6 | %34
 x6 | x6 | x6 | x6 | x6 | x6 ||[K:C] x6 | x6 | x6 | x6 | x6 | x6 | x6 | x6 | x6 | x6 | x6 | x6 | %52
 x6 | x6 | x6 | x4 ||[K:F][M:3/4] x2 |: z2 [FA]2 [FA]2 | z2 [FA]2 z2 | z2 [Bd]2 z2 | z2 [DF]2 z2 | %61
 z2 [B,E]2 [B,E]2 | z2 [CE]2 [CE]2 | z2 [FA]2 [FA]2 | z2 [FA]2 z2 | z2 [CF]2 z2 | z2 [C^D]2 z2 | %67
 z2 [CE]2 [CE]2 | z2 [CE]2 z2 | z2 [B,C]2 z2 | z2 [CE]2 z2 | z2 [CF]2 [CF]2 | z2 [CF]2 z2 | %73
 z2 [FA]2 [FA]2 | z2 [FA]2 z2 | z2 [Bd]2 z2 | z2 [DF]2 z2 | z2 [B,E]2 [B,E]2 | z2 [CE]2 [CE]2 | %79
 z2 [^FA]2 [FA]2 | z2 [^FA]2 z2 | z2 [Bd]2 z2 | z2 [F=B]2 [FB]2 | z2 [Ac]2 z2 | z2 [^FA]2 [FA]2 | %85
 z2 ([D=F]2 [_DF]2) | z2 [CE]2 [B,E]2 |1 x6 | x6 :|2 x6 | x6 ||[K:C] x6 | x6 | x6 | x6 | x6 | x6 | %97
 x6 | (E2 !fermata!D4) || x6 | x6 | x6 | x6 | x6 | x6 | x6 | x6 | x6 | x6 | x6 | x6 | x6 | x6 | %113
 x6 | x6 |] %115
V:4
 x6 | x6 | x6 | x6 | x6 | x6 | x6 | x6 || x6 | x6 | x6 | x6 | x6 | x6 | x6 | x6 | x6 | x6 | x6 | %19
 x6 | x6 | x6 | x6 | x6 ||[K:F] x6 | x6 | x6 | x6 | x6 | x6 | x6 | x6 | x6 | x6 | x6 | x6 | x6 | %37
 x6 | x6 | x6 ||[K:C] x6 | x6 | x6 | x6 | x6 | x6 | x6 | x6 | x6 | x6 | x6 | x6 | x6 | x6 | x6 | %55
 x4 ||[K:F][M:3/4] x2 |: x6 | x6 | x6 | x6 | x6 | x6 | x6 | x6 | x6 | x6 | x6 | x6 | x6 | x6 | %71
 F,,6- | F,,4 z2 | x6 | x6 | x6 | x6 | x6 | x6 | x6 | x6 | x6 | x6 | x6 | x6 | x6 | x6 |1 x6 | %88
 x6 :|2 x6 | x6 ||[K:C] x6 | x6 | x6 | x6 | x6 | x6 | x6 | x6 || x6 | x6 | x6 | x6 | x6 | x6 | x6 | %106
 x6 | x6 | x6 | x6 | x6 | x6 | x6 | x6 | x6 |] %115

